X:287
T:The silver spear
T:The top of the cliff
T:The new mown meadows
R:Reel
B:Ceol Rince 1 n141
S:John B. Walsh
Z:Transcription:John B. Walsh(?), chords:Mike Long
Z:My slight variation, mdl
M:C|
L:1/8
K:D
"D"FA~A2 "A"BAFA|"G"dfed "(A)"BcdA|"D"FA~A2 "A"BAFA|"G"dfed "(A)"B2A2|\
"D"FA~A2 "A"BAFA|
"G"dfed "(A)"Bcdf|"G"~g3e "D"~f3e|"G"dfed "A"B2A2:|\
|:"D"faaf "A"bfaf|"G"gfed "(A)"Bcde|
"D"faaf "A"bfaf|"G"gfed "(A)"B2A2|\
"D"faaf "A"bfaf|"G"gfed "(A)"Bcde|"G"~g3e "D"~f3e|"G"dfed "A"B2A2:|
